!!!COM: Palestrina, Giovanni Perluigi da
!!!OPR: Missa Illumina oculos meos
!!!OMD: Credo
!!!OTL: Et ascendit
**kern	**kern	**kern	**kern
*Ibass	*Itenor	*Icalto	*Icalto
!Bassus	!Tenor	!Altus 2	!Altus 1
*clefF4	*clefGv2	*clefG2	*clefG2
*k[]	*k[]	*k[]	*k[]
*E:phr	*E:phr	*E:phr	*E:phr
*M4/2	*M4/2	*M4/2	*M4/2
=121	=121	=121	=121
0C	0G	2c	2e
.	.	1e	1c
.	.	2e	2c
=122	=122	=122	=122
1r	1r	2f	2d
.	.	2g	2e
2r	2r	2e	2c
[2E	[2G	[2g	[2e
=123	=123	=123	=123
2E]	2G]	4g]	4e]
.	.	4f	4d
2E	2G	1e	1c
2F	2A	.	.
2G	2B	2d	2B
=124	=124	=124	=124
2C	2G	0e	1c
2.c	2.A	.	.
.	.	.	1r
4B	4G	.	.
[2A	2c	.	.
=125	=125	=125	=125
2A]	1B	1r	1r
2G#	.	.	.
[1A	1A	2r	2r
.	.	2A	2e
=126	=126	=126	=126
1A]	0r	2.c	2.e
.	.	4B	4d
1r	.	2c	2e
.	.	2d	2f
=127	=127	=127	=127
1r	0r	2e	4g
.	.	.	4f
.	.	4c	4e
.	.	4d	4d
2r	.	4e	4c
.	.	4f	4d
2C	.	4g	2e
.	.	4e	.
=128	=128	=128	=128
2.F	0r	4f	4d
.	.	4e	4c
.	.	4d	1c
4E	.	4c	.
2F	.	1d	.
2G	.	.	2B
=129	=129	=129	=129
1A	2r	1c	2c
.	2A	.	2A
2r	2.A	1r	2.c
[2F	.	.	.
.	4G	.	4B
=130	=130	=130	=130
4F]	2A	1r	2c
4E	.	.	.
2D	2B	.	2d
1C	2c	2r	[1e
.	2E	2G	.
=131	=131	=131	=131
0r	2.A	2.c	1e]
.	4G	4B	.
.	2A	2c	2r
.	2F	2d	2A
=132	=132	=132	=132
0r	2G	2e	2B
.	2.A	2.f	2.c
.	4G	4e	4B
.	2E	[2e	2G
=133	=133	=133	=133
2r	2F	2e]	2A
2GG	2G	2d	2B
2.C	2.E	2e	1c
.	.	[2g	.
4BB	8F	.	.
.	8G	.	.
=134	=134	=134	=134
2C	1A	4g]	1r
.	.	8f#	.
.	.	8e	.
2D	.	2f#	.
1E	2G	1g	2r
.	2C	.	2G
=135	=135	=135	=135
2.C	2.G	2r	2.c
.	.	2e	.
4D	4F	.	4B
2E	2G	2e	2c
2F	2A	2d	2d
=136	=136	=136	=136
2E	2G	2c	2e
1D	2.A	2d	1f
.	.	[1A	.
.	4G	.	.
2C	2E	.	[2e
=137	=137	=137	=137
0D	0F	0A]	2e]
.	.	.	4d
.	.	.	4c
.	.	.	1d
=138	=138	=138	=138
0AA	1E	0c	[0e
.	1A	.	.
=139	=139	=139	=139
0E	0G#	0B	0e]
*-	*-	*-	*-
!!!CDT: 1525/^1526/-1594/2/2
!!!OCY: Italia
!!!AGN: Mass (Parody)
!!!AST: renaissance, vocal
!!!ASW: Motet (Silva)
!!!PWK: Masses, Book 10
!!!RNB: Cadence finals: G,C,A
!!!YOR: Le Opere Complete, v. 27, p. 155
!!!YOO: Rome, Italy: Fratelli Scalera
!!!END: 1992//
!!!EED: John Miller
!!!YEC: Copyright 2000, John Miller
!!!YEN: United States of America
!!!YEM: Rights to all derivative electronic formats reserved.
!!!YEM: Refer to licensing agreement for further details.
!!!YEM: This file must be accompanied by the licensing agreement.
!!!YEM: A copy of the licensing agreement may be found at http://www.music-cog.ohio-state.edu/HumdrumDatabases/Palestrina/license.txt
!!!EMD: converted to Humdrum by Bret Aarden
